X: 10651
T: IRISH HORNPIPE
C:
%R: hornpipe, reel
B: Elias Howe "The Musician's Companion" Part 1 1842 p.65 #1
S: http://imslp.org/wiki/The_Musician's_Companion_(Howe,_Elias)
Z: 2015 John Chambers <jc:trillian.mit.edu>
M: C|
L: 1/8
K: D
% - - - - - - - - - - - - - - - - - - - - - - - - -
(3(ABc) |\
dAFA dfaf | gfef d2A2 | BdAd GdFd | E2EE E2 (3(ABc) |\
dAFA dfaf | gfef dcBA | BcdA BGEC | D2DD D2 :|
|: FG |\
AFdB fdAF | GABG E3f | gfed cdef | edcB A3A |\
Bd (3(ded) Ad (3(ded) | Bd (3(ded) Ad (3(de) | Bdef gedc | d2DD D2 :|
% - - - - - - - - - - - - - - - - - - - - - - - - -


